X: 1
T: Rector At The Feis
C: Ryan J MacNeil
R: reel
M: 4/4
L: 1/8
K: Amix
e|:g2 gf gedB|(3efg gf gedB|eaag aged|cd edcA ~A2|
fggf gedB|(3efg gf gedB|eaag aged|1 c2 A2 ~A2 Ae:|2 c2 A2 ~A2 AB||
|:Bc A2 ~A2 eA|cdeA cdeA|g2 d2 d2 fd|adgd fdcd|
Bc A2 ~A2 eA|cd eA cd eA|g2 gf gedB|deBd BA ~A2:|
